public/photo_b.svg

<svg xmlns="http://www.w3.org/2000/svg" xmlns:vectornator="http://vectornator.io" xml:space="preserve" stroke-miterlimit="10" style="fill-rule:nonzero;clip-rule:evenodd;stroke-linecap:round;stroke-linejoin:round" viewBox="0 0 1200 1200"><defs><linearGradient id="b" x1="0" x2="1" y1="0" y2="0" gradientTransform="matrix(1.81932 271.818 -271.988 1.81818 578.22 492.853)" gradientUnits="userSpaceOnUse"><stop offset="0" stop-color="#a4b49c"/><stop offset=".544" stop-color="#607f60"/><stop offset="1" stop-color="#5b825d"/></linearGradient><linearGradient id="c" x1="0" x2="1" y1="0" y2="0" gradientTransform="matrix(2.0248 -271.829 271.998 2.02354 599.477 1043.06)" gradientUnits="userSpaceOnUse"><stop offset="0" stop-color="#c9d7c3"/><stop offset=".458" stop-color="#a8c4aa"/><stop offset="1" stop-color="#a8c4aa"/></linearGradient><radialGradient id="a" cx="0" cy="0" r="1" gradientTransform="matrix(388.989 384.135 -576.203 259.326 251.715 245.539)" gradientUnits="userSpaceOnUse"><stop offset="0" stop-color="#fffcee"/><stop offset="1" stop-color="#eeca5a"/></radialGradient></defs><g vectornator:layerName="Layer 3"><path vectornator:layerName="Curve 4" fill="url(#a)" d="M0 0h1200v1200H0"/><path vectornator:layerName="Curve 5" fill="#fff" d="m74.939 1129.22 1049.701-.31L1124.42 70H74.73"/><path vectornator:layerName="Curve 6" fill="#ada08d" d="M60.015 60.02 1139.98 60l-15 9.824L74.985 70l-14.97-9.98Z"/><path vectornator:layerName="Curve 7" fill="#ada08d" d="m60.015 60-.205 1080 14.8-9.26.12-1061.604L60.015 60Z"/><path vectornator:layerName="Curve 8" fill="#d4c9b2" d="m56.283 1139.75 15.512-10.53 1056.515.33 15.1 10.45-1087.127-.25Z"/><path vectornator:layerName="Curve 9" fill="#a79d88" d="M1139.75 1140 1140 60l-15.28 9.573-.3 1060.317 15.33 10.11Z"/></g><g vectornator:layerName="Layer 2"><path vectornator:layerName="Curve 1" fill="#fce3e2" d="M100.277 100H1100v537.02H100.277V100Z"/><path vectornator:layerName="Curve 8" fill="#fff2eb" d="m100 599.704.277-271.541s308.625-114.995 454.007-93.096 119.045 65.065 185.414 134.762c66.37 69.698 124.944 268.684-14.327 321.747-139.271 53.062-307.83 59.59-462.693 34.533C107.815 701.051 100 599.704 100 599.704Z"/><path vectornator:layerName="Curve 7" fill="#ffe4c1" d="M174.416 464.082c4.535-62.636 169.771-107.716 238.642-106.526 68.872 1.19 153.19 90.309 179.691 142.233 26.5 51.924 43.08 57.727 13.037 112.478s-33.302 97.004-133.209 106.526c-99.906 9.522-193.861-33.178-266.417-68.439-72.557-35.26-36.278-123.636-31.744-186.272Z"/><path vectornator:layerName="Oval 1" fill="#fffec1" d="M352.459 538.839c0-21.91 17.525-39.671 39.144-39.671s39.145 17.761 39.145 39.671c0 21.909-17.526 39.67-39.145 39.67-21.619 0-39.144-17.761-39.144-39.67Z"/><path vectornator:layerName="Curve 5" fill="#d1e7e1" d="M100.277 773.757H1100V1100H100.277V773.757Z"/><path vectornator:layerName="Curve 3" fill="url(#b)" d="M100.277 763.934H1100V627.197s-154.434-65.222-263.068-59.431c-108.635 5.79-308.522 42.703-410.638.723-102.117-41.979-120.947-114.357-215.821-56.454-94.874 57.902-110.196 80.261-110.196 80.261v171.638Z"/><path vectornator:layerName="Curve 9" fill="#e3efee" d="M133.677 1100h519.902s76.199-111.042 46.157-163.121c-30.043-52.08-127.252-99.341-227.159-108.398-99.906-9.057-264.531 28.234-337.087 61.774C62.933 923.796 133.677 1100 133.677 1100Z"/><path vectornator:layerName="Oval 2" fill="#faf9dc" d="M352.459 1007.56c0-21.908 17.525-39.669 39.144-39.669s39.145 17.761 39.145 39.669c0 21.91-17.526 39.67-39.145 39.67-21.619 0-39.144-17.76-39.144-39.67Z"/><path vectornator:layerName="Curve 4" fill="url(#c)" d="M100.277 773.757H1100v132.828s-154.434 69.131-263.068 63.341c-108.635-5.791-308.522-42.703-410.638-.724-102.117 41.978-120.947 114.358-215.821 56.458-94.874-57.906-110.196-80.265-110.196-80.265V773.757Z"/><path vectornator:layerName="Curve 2" fill="#fffdfd" fill-opacity=".518" d="m100 791.061 999.72-.347v-5.293H100v5.64Z"/><path vectornator:layerName="Curve 6" fill="#fffdfd" fill-opacity=".518" d="m100.277 806.542 999.443-.174v-2.647H100.277v2.821Z"/></g></svg>

<?xml version="1.0" encoding="UTF-8" standalone="no"?>
<!DOCTYPE svg PUBLIC "-//W3C//DTD SVG 1.1//EN" "http://www.w3.org/Graphics/SVG/1.1/DTD/svg11.dtd">
<!-- Created with Vectornator (http://vectornator.io/) -->
<svg height="100%" stroke-miterlimit="10" style="fill-rule:nonzero;clip-rule:evenodd;stroke-linecap:round;stroke-linejoin:round;" version="1.1" viewBox="0 0 1200 1200" width="100%" xml:space="preserve" xmlns="http://www.w3.org/2000/svg" xmlns:vectornator="http://vectornator.io" xmlns:xlink="http://www.w3.org/1999/xlink">
<defs>
<radialGradient cx="0" cy="0" gradientTransform="matrix(388.989 384.135 -576.203 259.326 251.715 245.539)" gradientUnits="userSpaceOnUse" id="RadialGradient" r="1">
<stop offset="0" stop-color="#fffcee"/>
<stop offset="1" stop-color="#eeca5a"/>
</radialGradient>
<linearGradient gradientTransform="matrix(1.81932 271.818 -271.988 1.81818 578.22 492.853)" gradientUnits="userSpaceOnUse" id="LinearGradient" x1="0" x2="1" y1="0" y2="0">
<stop offset="0" stop-color="#a4b49c"/>
<stop offset="0.54375" stop-color="#607f60"/>
<stop offset="1" stop-color="#5b825d"/>
</linearGradient>
<linearGradient gradientTransform="matrix(2.0248 -271.829 271.998 2.02354 599.477 1043.06)" gradientUnits="userSpaceOnUse" id="LinearGradient_2" x1="0" x2="1" y1="0" y2="0">
<stop offset="0" stop-color="#c9d7c3"/>
<stop offset="0.458333" stop-color="#a8c4aa"/>
<stop offset="1" stop-color="#a8c4aa"/>
</linearGradient>
</defs>
<g id="Layer-3" vectornator:layerName="Layer 3">
<path d="M0 0L1200 0L1200 1200L0 1200" fill="url(#RadialGradient)" fill-rule="nonzero" opacity="1" stroke="none" vectornator:layerName="Curve 4"/>
<path d="M74.939 1129.22L1124.64 1128.91L1124.42 70L74.7302 70" fill="#ffffff" fill-rule="nonzero" opacity="1" stroke="none" vectornator:layerName="Curve 5"/>
<path d="M60.0151 60.0202L1139.98 60L1124.98 69.8244L74.9848 70L60.0151 60.0202Z" fill="#ada08d" fill-rule="nonzero" opacity="1" stroke="none" vectornator:layerName="Curve 6"/>
<path d="M60.0151 60L59.8097 1140L74.6105 1130.74L74.7302 69.1356L60.0151 60Z" fill="#ada08d" fill-rule="nonzero" opacity="1" stroke="none" vectornator:layerName="Curve 7"/>
<path d="M56.2832 1139.75L71.7947 1129.22L1128.31 1129.55L1143.41 1140L56.2832 1139.75Z" fill="#d4c9b2" fill-rule="nonzero" opacity="1" stroke="none" vectornator:layerName="Curve 8"/>
<path d="M1139.75 1140L1140 60L1124.72 69.5728L1124.42 1129.89L1139.75 1140Z" fill="#a79d88" fill-rule="nonzero" opacity="1" stroke="none" vectornator:layerName="Curve 9"/>
</g>
<g id="Layer-2" vectornator:layerName="Layer 2">
<path d="M100.277 100L1100 100L1100 637.02L100.277 637.02L100.277 100Z" fill="#fce3e2" fill-rule="nonzero" opacity="1" stroke="none" vectornator:layerName="Curve 1"/>
<path d="M100 599.704L100.277 328.163C100.277 328.163 408.902 213.168 554.284 235.067C699.666 256.966 673.329 300.132 739.698 369.829C806.068 439.527 864.642 638.513 725.371 691.576C586.1 744.638 417.541 751.166 262.678 726.109C107.815 701.051 100 599.704 100 599.704Z" fill="#fff2eb" fill-rule="nonzero" opacity="1" stroke="none" vectornator:layerName="Curve 8"/>
<path d="M174.416 464.082C178.951 401.446 344.187 356.366 413.058 357.556C481.93 358.746 566.248 447.865 592.749 499.789C619.249 551.713 635.829 557.516 605.786 612.267C575.743 667.018 572.484 709.271 472.577 718.793C372.671 728.315 278.716 685.615 206.16 650.354C133.603 615.094 169.882 526.718 174.416 464.082Z" fill="#ffe4c1" fill-rule="nonzero" opacity="1" stroke="none" vectornator:layerName="Curve 7"/>
<path d="M352.459 538.839C352.459 516.929 369.984 499.168 391.603 499.168C413.222 499.168 430.748 516.929 430.748 538.839C430.748 560.748 413.222 578.509 391.603 578.509C369.984 578.509 352.459 560.748 352.459 538.839Z" fill="#fffec1" fill-rule="nonzero" opacity="1" stroke="none" vectornator:layerName="Oval 1"/>
<path d="M100.277 773.757L1100 773.757L1100 1100L100.277 1100L100.277 773.757Z" fill="#d1e7e1" fill-rule="nonzero" opacity="1" stroke="none" vectornator:layerName="Curve 5"/>
<path d="M100.277 763.934L1100 763.934L1100 627.197C1100 627.197 945.566 561.975 836.932 567.766C728.297 573.556 528.41 610.469 426.294 568.489C324.177 526.51 305.347 454.132 210.473 512.035C115.599 569.937 100.277 592.296 100.277 592.296L100.277 763.934Z" fill="url(#LinearGradient)" fill-rule="nonzero" opacity="1" stroke="none" vectornator:layerName="Curve 3"/>
<path d="M133.677 1100L653.579 1100C653.579 1100 729.778 988.958 699.736 936.879C669.693 884.799 572.484 837.538 472.577 828.481C372.671 819.424 208.046 856.715 135.49 890.255C62.9334 923.796 133.677 1100 133.677 1100Z" fill="#e3efee" fill-rule="nonzero" opacity="1" stroke="none" vectornator:layerName="Curve 9"/>
<path d="M352.459 1007.56C352.459 985.652 369.984 967.891 391.603 967.891C413.222 967.891 430.748 985.652 430.748 1007.56C430.748 1029.47 413.222 1047.23 391.603 1047.23C369.984 1047.23 352.459 1029.47 352.459 1007.56Z" fill="#faf9dc" fill-rule="nonzero" opacity="1" stroke="none" vectornator:layerName="Oval 2"/>
<path d="M100.277 773.757L1100 773.757L1100 906.585C1100 906.585 945.566 975.716 836.932 969.926C728.297 964.135 528.41 927.223 426.294 969.202C324.177 1011.18 305.347 1083.56 210.473 1025.66C115.599 967.754 100.277 945.395 100.277 945.395L100.277 773.757Z" fill="url(#LinearGradient_2)" fill-rule="nonzero" opacity="1" stroke="none" vectornator:layerName="Curve 4"/>
<path d="M100 791.061L1099.72 790.714L1099.72 785.421L100 785.421L100 791.061Z" fill="#fffdfd" fill-opacity="0.518333" fill-rule="nonzero" opacity="1" stroke="none" vectornator:layerName="Curve 2"/>
<path d="M100.277 806.542L1099.72 806.368L1099.72 803.721L100.277 803.721L100.277 806.542Z" fill="#fffdfd" fill-opacity="0.518333" fill-rule="nonzero" opacity="1" stroke="none" vectornator:layerName="Curve 6"/>
</g>
</svg>
